en/_assets/monitoring/raw.svg

<svg width="16" height="16" viewBox="0 0 16 16" fill="none" xmlns="http://www.w3.org/2000/svg">
<path fill-rule="evenodd" clip-rule="evenodd" d="M7.10106 13.3977L5.76679 13.0032C5.6268 12.9631 5.54805 12.8138 5.58742 12.6712L8.57313 2.19305C8.6125 2.05043 8.75905 1.9702 8.89904 2.01031L10.2333 2.40475C10.3733 2.44486 10.452 2.59417 10.4127 2.73679L7.42697 13.215C7.38541 13.3576 7.24105 13.44 7.10106 13.3977ZM4.60745 10.8973L5.55894 9.86333C5.65956 9.75414 5.653 9.58032 5.54144 9.48004L3.55972 7.70396L5.54144 5.92789C5.653 5.82761 5.66175 5.65379 5.55894 5.5446L4.60745 4.5106C4.50902 4.40363 4.34279 4.39695 4.23561 4.49945L1.08367 7.50786C0.972112 7.6126 0.972112 7.7931 1.08367 7.89784L4.23561 10.9085C4.34279 11.011 4.50902 11.0065 4.60745 10.8973ZM14.9163 7.90004L11.7643 10.9107C11.6572 11.011 11.4909 11.0065 11.3925 10.8973L10.441 9.8633C10.3382 9.75411 10.347 9.58029 10.4585 9.48001L12.4402 7.70394L10.4585 5.92563C10.347 5.82535 10.3404 5.65153 10.441 5.54234L11.3925 4.50834C11.4931 4.40137 11.6594 4.39692 11.7643 4.4972L14.9163 7.51006C15.0278 7.6148 15.0278 7.7953 14.9163 7.90004Z" fill="currentColor"/>
</svg>

<svg xmlns="http://www.w3.org/2000/svg" width="16" height="16" fill="none"><path fill="currentColor" fill-rule="evenodd" d="m7.101 13.398-1.334-.395a.269.269 0 0 1-.18-.332L8.573 2.193A.262.262 0 0 1 8.9 2.01l1.334.395c.14.04.219.19.18.332L7.427 13.215a.261.261 0 0 1-.326.183Zm-2.494-2.5.952-1.035a.27.27 0 0 0-.018-.383L3.56 7.704 5.54 5.928c.112-.1.12-.274.018-.383L4.607 4.51a.26.26 0 0 0-.371-.012L1.084 7.508a.269.269 0 0 0 0 .39l3.152 3.01a.257.257 0 0 0 .371-.01ZM14.917 7.9l-3.153 3.01a.26.26 0 0 1-.371-.013l-.952-1.034a.269.269 0 0 1 .018-.383l1.981-1.776-1.981-1.778a.271.271 0 0 1-.018-.384l.951-1.034a.261.261 0 0 1 .372-.01l3.152 3.012a.27.27 0 0 1 0 .39Z" clip-rule="evenodd"/></svg>
